svgs/regular/vent-damper.svg

<svg xmlns="http://www.w3.org/2000/svg" viewBox="0 0 640 512"><!--! Font Awesome Pro 6.1.1 by @fontawesome - https://fontawesome.com License - https://fontawesome.com/license (Commercial License) Copyright 2022 Fonticons, Inc. --><path d="M456 232h-272C170.8 232 160 242.8 160 256s10.75 24 24 24h272C469.2 280 480 269.2 480 256S469.2 232 456 232zM456 304h-272C170.8 304 160 314.8 160 328S170.8 352 184 352h272c13.25 0 24-10.75 24-24S469.2 304 456 304zM608 160h-32V128c0-35.36-28.64-64-64-64H128C92.64 64 64 92.64 64 128v32H32C14.34 160 0 174.3 0 192v128c0 17.66 14.34 32 32 32h32v32c0 35.36 28.64 64 64 64h384c35.36 0 64-28.64 64-64v-32h32c17.66 0 32-14.34 32-32V192C640 174.3 625.7 160 608 160zM528 384c0 8.832-7.168 16-16 16H128c-8.832 0-16-7.168-16-16V128c0-8.832 7.168-16 16-16h384c8.832 0 16 7.168 16 16V384zM456 160h-272C170.8 160 160 170.8 160 184S170.8 208 184 208h272C469.2 208 480 197.2 480 184S469.2 160 456 160z"/></svg>

<svg xmlns="http://www.w3.org/2000/svg" viewBox="0 0 640 512"><!--! Font Awesome Pro 6.4.2 by @fontawesome - https://fontawesome.com License - https://fontawesome.com/license (Commercial License) Copyright 2023 Fonticons, Inc. --><path d="M512 112c8.8 0 16 7.2 16 16V384c0 8.8-7.2 16-16 16H128c-8.8 0-16-7.2-16-16V128c0-8.8 7.2-16 16-16H512zM128 64c-35.3 0-64 28.7-64 64v32H32c-17.7 0-32 14.3-32 32V320c0 17.7 14.3 32 32 32H64v32c0 35.3 28.7 64 64 64H512c35.3 0 64-28.7 64-64V352h32c17.7 0 32-14.3 32-32V192c0-17.7-14.3-32-32-32H576V128c0-35.3-28.7-64-64-64H128zm56 80c-13.3 0-24 10.7-24 24s10.7 24 24 24H456c13.3 0 24-10.7 24-24s-10.7-24-24-24H184zm0 88c-13.3 0-24 10.7-24 24s10.7 24 24 24H456c13.3 0 24-10.7 24-24s-10.7-24-24-24H184zm0 88c-13.3 0-24 10.7-24 24s10.7 24 24 24H456c13.3 0 24-10.7 24-24s-10.7-24-24-24H184z"/></svg>
